lib/logotmp/nrk-logo-nrk-oslo-og-viken-title-below.svg

<svg width="60" height="54" viewBox="0 0 60 54" fill="none" xmlns="http://www.w3.org/2000/svg">
<path d="M0 17.9976V5.99865H4V17.9976H0ZM9.24381 7.90834L11.5081 17.9976H7.19917L4.49549 5.99865H6.91217C7.46635 5.99146 8.00406 6.18681 8.4245 6.54795C8.84562 6.89394 9.08495 7.37426 9.24381 7.90834ZM12 17.9976V5.99865H16V17.9976H12ZM19.0105 10.5617C18.5862 10.5658 18.1687 10.4548 17.8025 10.2405C17.4412 10.0317 17.1411 9.73152 16.9323 9.37016C16.7178 9.00389 16.6068 8.58632 16.611 8.16188C16.6061 7.74002 16.7172 7.32494 16.9323 6.96199C17.1433 6.60455 17.4431 6.30765 17.8025 6.10008C18.1689 5.88606 18.5862 5.77507 19.0105 5.77894C19.4322 5.7744 19.8471 5.88549 20.2102 6.10008C20.566 6.30947 20.8626 6.60612 21.072 6.96199C21.2868 7.32504 21.3979 7.74005 21.3933 8.16188C21.3973 8.58629 21.2863 9.00379 21.072 9.37016C20.8649 9.72993 20.5679 10.0298 20.2102 10.2405C19.8471 10.4555 19.4324 10.5666 19.0105 10.5617ZM22 17.9976V5.99865H26V17.9976H22ZM30.9737 12.5558C30.9848 12.5674 31.0693 12.7054 31.2272 12.9698C31.3851 13.2342 31.5906 13.5722 31.8439 13.9838C32.0974 14.3953 32.3649 14.8318 32.6463 15.2936C32.9278 15.7553 33.1926 16.1919 33.4408 16.6033C33.6881 17.0147 33.9697 17.4795 34.2857 17.9976H29.9598C29.6893 17.5582 29.4441 17.161 29.2245 16.8061C29.0048 16.4512 28.7713 16.0681 28.5238 15.6569C28.2758 15.2461 28.0306 14.8461 27.7882 14.457C27.5458 14.0679 27.3375 13.7272 27.1633 13.4346C26.9883 13.1419 26.8671 12.9447 26.7997 12.8431C26.6325 12.591 26.5336 12.2999 26.5127 11.9981C26.5294 11.7085 26.6226 11.4285 26.7828 11.1867C26.8503 11.074 26.9743 10.874 27.1545 10.5867C27.3348 10.2994 27.546 9.95861 27.7882 9.56428C28.0304 9.16995 28.2756 8.76716 28.5238 8.35593C28.772 7.9447 29.0055 7.55879 29.2245 7.19826C29.4445 6.83811 29.6897 6.43814 29.9598 5.99837H34.2857L30.9396 11.4571C30.8361 11.6191 30.7777 11.8059 30.7706 11.9981C30.7818 12.1999 30.8528 12.3939 30.9737 12.5558Z" fill="white"/>
<g clip-path="url(#clip0_5918_1617)">
<path d="M11.2465 26.4055C10.9858 25.6463 10.6091 24.9948 10.1161 24.4509C9.62323 23.907 9.02266 23.4877 8.31445 23.1931C7.60623 22.8985 6.79887 22.7512 5.89235 22.7512C4.98584 22.7512 4.15297 22.9041 3.42776 23.2101C2.70255 23.516 2.08782 23.9466 1.58357 24.5019C1.07932 25.0571 0.694051 25.7228 0.427762 26.499C0.161473 27.2752 0.0283286 28.1336 0.0283286 29.0741C0.0283286 30.0146 0.15864 30.8616 0.419263 31.6152C0.679887 32.3687 1.05949 33.0118 1.55807 33.5444C2.05666 34.0769 2.66006 34.482 3.36827 34.7597C4.07649 35.0373 4.87819 35.1761 5.77337 35.1761C6.66855 35.1761 7.49292 35.0288 8.21246 34.7342C8.93201 34.4395 9.54674 34.0203 10.0567 33.4764C10.5666 32.9325 10.9575 32.2809 11.2295 31.5217C11.5014 30.7625 11.6374 29.9013 11.6374 28.9381C11.6374 27.9749 11.5071 27.1647 11.2465 26.4055ZM9.53824 30.8758C9.36261 31.4537 9.10482 31.9495 8.76487 32.363C8.42493 32.7766 8.00566 33.0996 7.50708 33.3319C7.0085 33.5642 6.43626 33.6803 5.79037 33.6803C5.14448 33.6803 4.61473 33.5727 4.13314 33.3574C3.65156 33.1421 3.23796 32.8333 2.89235 32.431C2.54674 32.0288 2.28612 31.5444 2.11048 30.9778C1.93484 30.4112 1.84703 29.7766 1.84703 29.0741C1.84703 28.1336 2.0085 27.3007 2.33144 26.5755C2.65439 25.8503 3.11615 25.2809 3.71671 24.8673C4.31728 24.4537 5.04249 24.2469 5.89235 24.2469C6.74221 24.2469 7.4221 24.4424 8 24.8333C8.5779 25.2242 9.02266 25.7738 9.33428 26.482C9.64589 27.1902 9.8017 28.0146 9.8017 28.9551C9.8017 29.6577 9.71388 30.2979 9.53824 30.8758ZM16.0907 35.1591C15.8754 35.1591 15.6629 35.1534 15.4533 35.1421C15.2436 35.1308 15.0283 35.1024 14.8074 35.0571C14.5864 35.0118 14.3541 34.958 14.1105 34.8956C13.8669 34.8333 13.5977 34.7512 13.3031 34.6492L13.2351 33.2044C13.4957 33.2951 13.7535 33.3772 14.0085 33.4509C14.2635 33.5245 14.5127 33.5868 14.7564 33.6378C15 33.6888 15.2323 33.7285 15.4533 33.7568C15.6742 33.7851 15.8754 33.7993 16.0567 33.7993C16.3966 33.7993 16.7167 33.7653 17.017 33.6973C17.3173 33.6293 17.5609 33.5132 17.7479 33.3489C17.9348 33.1846 18.0283 32.9608 18.0283 32.6775C18.0283 32.5415 18.0028 32.4169 17.9518 32.3036C17.9008 32.1902 17.8272 32.0911 17.7309 32.0061C17.6346 31.9211 17.5184 31.8418 17.3824 31.7681C17.2465 31.6945 17.0991 31.6293 16.9405 31.5727C16.8272 31.5387 16.711 31.5019 16.5921 31.4622C16.4731 31.4225 16.3513 31.3829 16.2266 31.3432C16.102 31.3036 15.9745 31.2639 15.8442 31.2242C15.7139 31.1846 15.5807 31.1421 15.4448 31.0968C15.3088 31.0514 15.1785 31.0061 15.0538 30.9608C14.8272 30.8701 14.6147 30.7596 14.4164 30.6293C14.2181 30.499 14.0453 30.3489 13.898 30.1789C13.7507 30.0089 13.6317 29.8021 13.5411 29.5585C13.4504 29.3149 13.4051 29.0344 13.4051 28.7172C13.4051 28.2752 13.4901 27.8928 13.6601 27.5698C13.83 27.2469 14.0708 26.9806 14.3824 26.771C14.694 26.5613 15.0595 26.4027 15.4788 26.2951C15.898 26.1874 16.3626 26.1336 16.8725 26.1336C17.0765 26.1336 17.2833 26.1421 17.4929 26.1591C17.7025 26.1761 17.915 26.2072 18.1303 26.2526C18.3456 26.2979 18.5581 26.3546 18.7677 26.4225C18.9773 26.4905 19.1898 26.5698 19.4051 26.6605L19.2861 28.0373C19.1388 27.9693 18.9745 27.907 18.7932 27.8503C18.6119 27.7936 18.4334 27.7427 18.2578 27.6973C18.0822 27.652 17.9065 27.6152 17.7309 27.5868C17.5552 27.5585 17.3938 27.5387 17.2465 27.5274C17.0991 27.516 16.9632 27.5104 16.8385 27.5104C16.5552 27.5104 16.3031 27.533 16.0822 27.5783C15.8612 27.6237 15.6714 27.6917 15.5127 27.7823C15.3541 27.873 15.2351 27.9834 15.1558 28.1138C15.0765 28.2441 15.0368 28.3999 15.0368 28.5812C15.0368 28.7398 15.0737 28.8815 15.1473 29.0061C15.221 29.1308 15.3173 29.2384 15.4363 29.3291C15.5552 29.4197 15.6884 29.5047 15.8357 29.584C15.9717 29.652 16.1218 29.7143 16.2861 29.771C16.4504 29.8276 16.6204 29.8815 16.796 29.9325C16.9717 29.9834 17.1473 30.0401 17.3229 30.1024C17.4986 30.1647 17.6771 30.2242 17.8584 30.2809C18.1076 30.3715 18.3456 30.482 18.5722 30.6123C18.7989 30.7427 18.9972 30.8985 19.1671 31.0798C19.3371 31.2611 19.4703 31.4735 19.5666 31.7172C19.6629 31.9608 19.711 32.2526 19.711 32.5925C19.711 33.0458 19.6176 33.4367 19.4306 33.7653C19.2436 34.0939 18.9858 34.3602 18.6572 34.5642C18.3286 34.7681 17.9433 34.9183 17.5014 35.0146C17.0595 35.1109 16.5892 35.1591 16.0907 35.1591ZM23.9943 35.1421C23.8697 35.1534 23.7394 35.1591 23.6034 35.1591C23.3314 35.1591 23.0793 35.1279 22.847 35.0656C22.6147 35.0033 22.4136 34.8985 22.2436 34.7512C22.0737 34.6038 21.9433 34.414 21.8527 34.1817C21.762 33.9495 21.7167 33.669 21.7167 33.3404V22.4112L23.4504 22.1562V32.5755C23.4504 32.7795 23.4646 32.9551 23.4929 33.1024C23.5212 33.2497 23.5694 33.3715 23.6374 33.4679C23.7054 33.5642 23.7904 33.635 23.8923 33.6803C23.9943 33.7257 24.119 33.7483 24.2663 33.7483C24.3343 33.7483 24.3938 33.7483 24.4448 33.7398C24.4957 33.7342 24.5552 33.7257 24.6232 33.7143C24.6912 33.703 24.7592 33.6917 24.8272 33.6803L24.6572 35.0231C24.5779 35.0458 24.4788 35.0684 24.3598 35.0911C24.2408 35.1138 24.119 35.1308 23.9943 35.1421ZM34.6686 30.5529C34.6686 29.6577 34.4929 28.8786 34.1416 28.2157C33.7904 27.5529 33.2889 27.0401 32.6374 26.6775C31.9858 26.3149 31.2181 26.1336 30.3343 26.1336C29.4504 26.1336 28.6771 26.3206 28.0142 26.6945C27.3513 27.0684 26.8357 27.5953 26.4674 28.2752C26.0991 28.9551 25.915 29.7596 25.915 30.6888C25.915 31.618 26.0878 32.4197 26.4334 33.0939C26.779 33.7681 27.2748 34.2809 27.9207 34.6322C28.5666 34.9834 29.3144 35.1591 30.1643 35.1591C31.0142 35.1591 31.83 34.9721 32.5099 34.5982C33.1898 34.2242 33.7195 33.6917 34.0991 33.0004C34.4788 32.3092 34.6686 31.4934 34.6686 30.5529ZM32.5354 32.3715C32.3144 32.8475 32.0057 33.2016 31.6091 33.4339C31.2125 33.6662 30.7592 33.7823 30.2493 33.7823C29.7394 33.7823 29.2974 33.6633 28.9235 33.4254C28.5496 33.1874 28.255 32.8305 28.0397 32.3546C27.8244 31.8786 27.7167 31.2894 27.7167 30.5868C27.7167 29.8843 27.8244 29.3234 28.0397 28.8701C28.255 28.4169 28.5581 28.0769 28.949 27.8503C29.3399 27.6237 29.8074 27.5104 30.3513 27.5104C30.7819 27.5104 31.153 27.5812 31.4646 27.7228C31.7762 27.8645 32.0368 28.0713 32.2465 28.3432C32.4561 28.6152 32.6119 28.941 32.7139 29.3206C32.8159 29.7002 32.8669 30.1223 32.8669 30.5868C32.8669 31.3007 32.7564 31.8956 32.5354 32.3715ZM46.966 26.6775C46.3144 26.3149 45.5467 26.1336 44.6629 26.1336C43.779 26.1336 43.0057 26.3206 42.3428 26.6945C41.6799 27.0684 41.1643 27.5953 40.796 28.2752C40.4278 28.9551 40.2436 29.7596 40.2436 30.6888C40.2436 31.618 40.4164 32.4197 40.762 33.0939C41.1076 33.7681 41.6034 34.2809 42.2493 34.6322C42.8952 34.9834 43.6431 35.1591 44.4929 35.1591C45.3428 35.1591 46.1586 34.9721 46.8385 34.5982C47.5184 34.2242 48.0482 33.6917 48.4278 33.0004C48.8074 32.3092 48.9972 31.4934 48.9972 30.5529C48.9972 29.6123 48.8215 28.8786 48.4703 28.2157C48.119 27.5529 47.6176 27.0401 46.966 26.6775ZM46.864 32.3715C46.6431 32.8475 46.3343 33.2016 45.9377 33.4339C45.5411 33.6662 45.0878 33.7823 44.5779 33.7823C44.068 33.7823 43.6261 33.6633 43.2521 33.4254C42.8782 33.1874 42.5836 32.8305 42.3683 32.3546C42.153 31.8786 42.0453 31.2894 42.0453 30.5868C42.0453 29.8843 42.153 29.3234 42.3683 28.8701C42.5836 28.4169 42.8867 28.0769 43.2776 27.8503C43.6686 27.6237 44.136 27.5104 44.6799 27.5104C45.1105 27.5104 45.4816 27.5812 45.7932 27.7228C46.1048 27.8645 46.3654 28.0713 46.5751 28.3432C46.7847 28.6152 46.9405 28.941 47.0425 29.3206C47.1445 29.7002 47.1955 30.1223 47.1955 30.5868C47.1955 31.3007 47.085 31.8956 46.864 32.3715ZM57.1416 26.5613C56.9547 26.482 56.7592 26.4112 56.5524 26.3546C56.3088 26.2866 56.0453 26.2327 55.762 26.1931C55.4787 26.1534 55.1728 26.1336 54.8442 26.1336C54.2776 26.1336 53.7394 26.2412 53.2295 26.4565C52.7195 26.6718 52.2635 26.9806 51.8612 27.3829C51.4589 27.7851 51.1445 28.2837 50.9178 28.8786C50.6912 29.4735 50.5779 30.1562 50.5779 30.9268C50.5779 31.788 50.7224 32.533 51.0113 33.1619C51.3003 33.7908 51.7224 34.2781 52.2776 34.6237C52.8329 34.9693 53.5071 35.1421 54.3003 35.1421C54.9122 35.1421 55.5184 35.0231 56.119 34.7851C56.4448 34.6548 56.7677 34.4707 57.0878 34.2356V34.7002C57.0878 35.1308 57.034 35.5075 56.9263 35.8305C56.8187 36.1534 56.6544 36.4254 56.4334 36.6463C56.2125 36.8673 55.9235 37.0316 55.5666 37.1393C55.2096 37.2469 54.7762 37.3007 54.2663 37.3007C53.9263 37.3007 53.5779 37.2809 53.221 37.2412C52.864 37.2016 52.5042 37.1336 52.1416 37.0373C51.779 36.941 51.4221 36.8191 51.0708 36.6718L51.2578 38.1676C51.5637 38.2922 51.8839 38.397 52.2181 38.482C52.5524 38.567 52.9008 38.6322 53.2635 38.6775C53.6261 38.7228 54 38.7455 54.3853 38.7455C55.3484 38.7455 56.1586 38.584 56.8159 38.2611C57.4731 37.9381 57.9688 37.4905 58.3031 36.9183C58.6374 36.3461 58.8045 35.686 58.8045 34.9381V26.1336L57.1416 26.5613ZM56.8669 33.1619C56.6402 33.2922 56.4221 33.3999 56.2125 33.4849C56.0028 33.5698 55.7989 33.635 55.6006 33.6803C55.4023 33.7257 55.1955 33.7483 54.9802 33.7483C54.3909 33.7483 53.9008 33.6378 53.5099 33.4169C53.119 33.1959 52.83 32.8616 52.6431 32.414C52.4561 31.9664 52.3626 31.3914 52.3626 30.6888C52.3626 30.1676 52.4278 29.7058 52.5581 29.3036C52.6884 28.9013 52.8753 28.5698 53.119 28.3092C53.3626 28.0486 53.6629 27.8475 54.0198 27.7058C54.3768 27.5642 54.7819 27.4934 55.2351 27.4934C55.5071 27.4934 55.7734 27.516 56.034 27.5613C56.2946 27.6067 56.5609 27.6718 56.8329 27.7568C56.915 27.7823 57.0028 27.8163 57.0878 27.8503V33.0316C57.0142 33.0769 56.9377 33.1223 56.8669 33.1619ZM8.82153 39.9183H10.5892L6.39093 51.9863H4.1813L0 39.9183H1.90368L4.38527 47.3631C4.52125 47.7483 4.65439 48.1591 4.7847 48.5953C4.91501 49.0316 5.04249 49.4707 5.16714 49.9126C5.23229 50.1478 5.29462 50.3715 5.35411 50.5897C5.41076 50.3829 5.47025 50.1676 5.53258 49.9466C5.65156 49.516 5.7762 49.0854 5.90652 48.6548C6.03683 48.2242 6.16431 47.8163 6.28895 47.431L8.82153 39.9183ZM14.0567 40.0118C14.1586 40.1874 14.2096 40.3829 14.2096 40.5982C14.2096 40.8135 14.1586 41.0118 14.0567 41.1931C13.9547 41.3744 13.8159 41.516 13.6402 41.618C13.4646 41.72 13.2691 41.771 13.0538 41.771C12.8385 41.771 12.6402 41.72 12.4589 41.618C12.2776 41.516 12.1331 41.3744 12.0255 41.1931C11.9178 41.0118 11.864 40.8135 11.864 40.5982C11.864 40.3829 11.9178 40.1874 12.0255 40.0118C12.1331 39.8361 12.2776 39.6945 12.4589 39.5868C12.6402 39.4792 12.8385 39.4254 13.0538 39.4254C13.2691 39.4254 13.4646 39.4792 13.6402 39.5868C13.8159 39.6945 13.9547 39.8361 14.0567 40.0118ZM12.153 43.4027L13.8867 43.1478V51.9863H12.153V43.4027ZM19.8952 47.3404L24.017 51.9863H21.7734L18.3003 47.822H18.272V51.9863H16.5382V39.4084L18.272 39.1534V46.5132H18.898L21.8074 43.3177H23.932L19.8952 47.3404ZM31.5297 44.414C31.2011 43.9891 30.7847 43.669 30.2805 43.4537C29.7762 43.2384 29.2011 43.1308 28.5552 43.1308C27.9093 43.1308 27.3314 43.2441 26.8215 43.4707C26.3116 43.6973 25.8782 44.0146 25.5212 44.4225C25.1643 44.8305 24.8923 45.3206 24.7054 45.8928C24.5184 46.465 24.4249 47.1024 24.4249 47.805C24.4249 48.7342 24.5921 49.5245 24.9263 50.1761C25.2606 50.8276 25.7564 51.3206 26.4136 51.6548C27.0708 51.9891 27.8754 52.1563 28.8272 52.1563C29.2805 52.1563 29.6799 52.1308 30.0255 52.0798C30.3711 52.0288 30.6969 51.9523 31.0028 51.8503C31.3088 51.7483 31.6147 51.618 31.9207 51.4594L32.0397 50.1506C31.8244 50.2299 31.6062 50.3092 31.3853 50.3885C31.1643 50.4679 30.9348 50.5387 30.6969 50.601C30.4589 50.6633 30.2153 50.7087 29.966 50.737C29.7167 50.7653 29.4674 50.7795 29.2181 50.7795C28.7082 50.7795 28.2663 50.7313 27.8923 50.635C27.5184 50.5387 27.204 50.3744 26.949 50.1421C26.694 49.9098 26.5014 49.5953 26.3711 49.1987C26.2691 48.8871 26.2068 48.5104 26.187 48.0769H32.3286C32.4079 47.2837 32.3768 46.5812 32.2351 45.9693C32.0935 45.3574 31.8584 44.839 31.5297 44.414ZM27.2465 44.822C27.6091 44.5897 28.051 44.4735 28.5722 44.4735C29.0935 44.4735 29.5524 44.601 29.881 44.856C30.2096 45.1109 30.4391 45.465 30.5694 45.9183C30.6544 46.2101 30.6912 46.5302 30.694 46.8701H26.2238C26.2663 46.4905 26.3343 46.1534 26.4391 45.8758C26.6147 45.4055 26.8839 45.0543 27.2465 44.822ZM42.085 44.5755C42.3003 45.0628 42.4079 45.6917 42.4079 46.4622V51.9863H40.6742V46.8191C40.6742 46.4679 40.6402 46.1619 40.5722 45.9013C40.5042 45.6407 40.3966 45.4254 40.2493 45.2554C40.102 45.0854 39.915 44.958 39.6884 44.873C39.4618 44.788 39.1898 44.7455 38.8725 44.7455C38.6459 44.7455 38.4108 44.7653 38.1671 44.805C37.9235 44.8446 37.6799 44.9041 37.4363 44.9834C37.1926 45.0628 36.949 45.1562 36.7054 45.2639C36.5241 45.3432 36.3541 45.4339 36.187 45.5302V51.9863H34.4533V43.4027L36.187 43.1478V44.363C36.3399 44.2412 36.4986 44.1223 36.6629 44.0146C37.0935 43.7313 37.5496 43.5132 38.0312 43.3602C38.5127 43.2072 38.9972 43.1308 39.4844 43.1308C40.1416 43.1308 40.6855 43.2497 41.1161 43.4877C41.5467 43.7257 41.8697 44.0883 42.085 44.5755Z" fill="white"/>
</g>
<defs>
<clipPath id="clip0_5918_1617">
<rect width="59" height="31" fill="white" transform="translate(0 22)"/>
</clipPath>
</defs>
</svg>

<svg xmlns="http://www.w3.org/2000/svg" viewBox="0 0 60 54"><path fill="#fff" d="M0 17.998v-12h4v12H0Zm9.244-10.09 2.264 10.09H7.2l-2.704-12h2.417a2.276 2.276 0 0 1 1.513.55c.42.346.66.826.819 1.36ZM12 17.998v-12h4v12h-4Zm7.01-7.436a2.381 2.381 0 0 1-2.078-1.192 2.345 2.345 0 0 1-.321-1.208 2.301 2.301 0 0 1 .321-1.2A2.41 2.41 0 0 1 20.21 6.1c.356.21.653.506.862.862.215.363.326.778.321 1.2a2.35 2.35 0 0 1-.321 1.208 2.4 2.4 0 0 1-.862.87 2.301 2.301 0 0 1-1.2.322ZM22 17.998v-12h4v12h-4Zm8.974-5.442c.01.011.095.15.253.414s.364.602.617 1.014a316.22 316.22 0 0 1 1.597 2.62c.247.41.529.876.845 1.394H29.96c-.27-.44-.516-.837-.736-1.192-.22-.355-.453-.738-.7-1.15-.248-.41-.493-.81-.736-1.199-.242-.39-.45-.73-.625-1.022a18.04 18.04 0 0 0-.363-.592 1.747 1.747 0 0 1-.287-.845c.016-.29.11-.57.27-.811.067-.113.191-.313.371-.6a182.106 182.106 0 0 0 1.37-2.23l.7-1.159.736-1.2h4.326l-3.346 5.46a1.079 1.079 0 0 0-.17.54c.012.202.083.396.204.558Z"/><g clip-path="url(#a)"><path fill="#fff" d="M11.246 26.405a5.557 5.557 0 0 0-1.13-1.954 4.972 4.972 0 0 0-1.802-1.258c-.708-.295-1.515-.442-2.422-.442-.906 0-1.739.153-2.464.46a5.166 5.166 0 0 0-1.844 1.29A5.661 5.661 0 0 0 .428 26.5c-.267.776-.4 1.635-.4 2.575 0 .94.13 1.788.391 2.541a5.33 5.33 0 0 0 1.14 1.93 4.886 4.886 0 0 0 1.81 1.215c.707.277 1.51.416 2.404.416.896 0 1.72-.147 2.44-.442a5.187 5.187 0 0 0 1.844-1.258 5.56 5.56 0 0 0 1.172-1.954c.272-.76.408-1.62.408-2.584 0-.963-.13-1.773-.39-2.532Zm-1.708 4.47a4.263 4.263 0 0 1-.773 1.488 3.54 3.54 0 0 1-1.258.969c-.498.232-1.07.348-1.717.348-.646 0-1.175-.107-1.657-.323a3.5 3.5 0 0 1-1.24-.926 4.028 4.028 0 0 1-.783-1.453 6.416 6.416 0 0 1-.263-1.904c0-.94.162-1.773.484-2.498.323-.726.785-1.295 1.386-1.709.6-.413 1.325-.62 2.175-.62.85 0 1.53.195 2.108.586.578.391 1.023.94 1.334 1.649.312.708.468 1.533.468 2.473 0 .703-.088 1.343-.264 1.92Zm6.553 4.284c-.216 0-.428-.006-.638-.017a4.392 4.392 0 0 1-.646-.085c-.22-.045-.453-.099-.697-.161a10.264 10.264 0 0 1-.807-.247l-.068-1.445c.26.091.519.173.774.247.255.074.504.136.747.187.244.05.476.09.697.119.221.028.422.042.604.042.34 0 .66-.034.96-.102.3-.068.544-.184.73-.348.188-.164.281-.388.281-.671a.869.869 0 0 0-.297-.671 1.873 1.873 0 0 0-.349-.239 3.15 3.15 0 0 0-.442-.195c-.113-.034-.229-.071-.348-.11a27.907 27.907 0 0 0-.748-.239 15.71 15.71 0 0 1-.79-.263 3.58 3.58 0 0 1-.638-.332 2.49 2.49 0 0 1-.518-.45 2.002 2.002 0 0 1-.357-.62 2.403 2.403 0 0 1-.136-.842c0-.442.085-.824.255-1.147.17-.323.41-.59.722-.799.312-.21.678-.368 1.097-.476a5.6 5.6 0 0 1 1.393-.161c.204 0 .411.008.62.025.21.017.423.048.638.094.216.045.428.102.638.17.21.068.422.147.637.238l-.119 1.376a4.092 4.092 0 0 0-.493-.187c-.181-.056-.36-.107-.535-.153a5.844 5.844 0 0 0-1.42-.187c-.283 0-.535.023-.756.068-.22.046-.41.114-.57.204a.966.966 0 0 0-.356.332.882.882 0 0 0-.12.467c0 .159.038.3.111.425.074.125.17.232.29.323.118.09.251.176.399.255.136.068.286.13.45.187.164.057.334.11.51.162.176.05.351.107.527.17.176.062.354.121.535.178.25.09.488.201.714.331.227.13.425.287.595.468.17.181.303.394.4.637.096.244.144.536.144.876 0 .453-.093.844-.28 1.172a2.223 2.223 0 0 1-.774.8 3.648 3.648 0 0 1-1.156.45 6.615 6.615 0 0 1-1.41.144Zm7.903-.017a4.33 4.33 0 0 1-.39.017c-.273 0-.525-.031-.757-.093a1.5 1.5 0 0 1-.603-.315c-.17-.147-.3-.337-.391-.57a2.316 2.316 0 0 1-.136-.84V22.41l1.733-.255v10.42c0 .203.015.38.043.526.028.148.076.27.144.366a.614.614 0 0 0 .255.212.918.918 0 0 0 .374.068c.068 0 .128 0 .179-.008.05-.006.11-.014.178-.026l.204-.034-.17 1.343a3.76 3.76 0 0 1-.663.119Zm10.675-4.59c0-.894-.176-1.673-.527-2.336a3.713 3.713 0 0 0-1.505-1.539c-.651-.362-1.419-.543-2.303-.543-.884 0-1.657.187-2.32.56a3.92 3.92 0 0 0-1.547 1.581c-.368.68-.552 1.485-.552 2.414s.173 1.73.518 2.405a3.548 3.548 0 0 0 1.488 1.538c.646.351 1.393.527 2.243.527.85 0 1.666-.187 2.346-.56A3.958 3.958 0 0 0 34.1 33c.379-.69.569-1.507.569-2.447Zm-2.134 1.82c-.22.475-.53.83-.926 1.062a2.64 2.64 0 0 1-1.36.348c-.51 0-.952-.119-1.325-.357-.374-.238-.669-.594-.884-1.07-.216-.476-.323-1.066-.323-1.768 0-.703.107-1.264.323-1.717.215-.453.518-.793.909-1.02.39-.226.858-.34 1.402-.34.43 0 .802.071 1.114.213.311.142.572.348.781.62.21.272.366.598.468.978.102.38.153.801.153 1.266 0 .714-.11 1.309-.332 1.784Zm14.431-5.695c-.652-.362-1.42-.543-2.303-.543-.884 0-1.657.187-2.32.56a3.92 3.92 0 0 0-1.547 1.581c-.368.68-.552 1.485-.552 2.414s.172 1.73.518 2.405a3.548 3.548 0 0 0 1.487 1.538c.646.351 1.394.527 2.244.527.85 0 1.666-.187 2.346-.56A3.959 3.959 0 0 0 48.428 33c.38-.69.57-1.507.57-2.447 0-.94-.176-1.674-.528-2.337a3.714 3.714 0 0 0-1.504-1.539Zm-.102 5.694c-.22.476-.53.83-.926 1.063a2.64 2.64 0 0 1-1.36.348c-.51 0-.952-.119-1.326-.357-.374-.238-.668-.594-.884-1.07-.215-.476-.323-1.066-.323-1.768 0-.703.108-1.264.323-1.717.216-.453.519-.793.91-1.02.39-.226.858-.34 1.402-.34.43 0 .802.071 1.113.213.312.142.572.348.782.62.21.272.365.598.467.978.102.38.154.801.154 1.266 0 .714-.111 1.309-.332 1.784Zm10.278-5.81a4.645 4.645 0 0 0-.59-.206 6.065 6.065 0 0 0-.79-.162c-.283-.04-.59-.06-.918-.06-.566 0-1.105.108-1.614.323-.51.216-.966.525-1.369.927-.402.402-.716.9-.943 1.496-.227.595-.34 1.277-.34 2.048 0 .861.144 1.606.433 2.235a3.296 3.296 0 0 0 1.267 1.462c.555.345 1.23.518 2.022.518a4.9 4.9 0 0 0 1.819-.357c.326-.13.649-.314.969-.55v.465c0 .43-.054.807-.162 1.13a2.049 2.049 0 0 1-.493.816c-.22.221-.51.386-.866.493-.357.108-.79.162-1.3.162-.34 0-.69-.02-1.046-.06a7.366 7.366 0 0 1-1.08-.204 8.23 8.23 0 0 1-1.07-.365l.187 1.496c.306.124.626.229.96.314.334.085.683.15 1.045.196.363.045.737.068 1.122.068.963 0 1.774-.162 2.43-.485.658-.323 1.154-.77 1.488-1.343.334-.572.502-1.232.502-1.98v-8.804l-1.663.427Zm-.275 6.6a5.37 5.37 0 0 1-.654.324c-.21.085-.414.15-.612.195a2.772 2.772 0 0 1-.62.068c-.59 0-1.08-.11-1.471-.331a1.992 1.992 0 0 1-.867-1.003c-.187-.448-.28-1.023-.28-1.725 0-.521.065-.983.195-1.385.13-.403.317-.734.561-.995a2.45 2.45 0 0 1 .9-.603 3.275 3.275 0 0 1 1.216-.213c.272 0 .538.023.799.068.26.046.527.11.799.196.082.025.17.06.255.093v5.182c-.074.045-.15.09-.221.13ZM8.822 39.919h1.767L6.391 51.986H4.18L0 39.918h1.904l2.481 7.445c.136.385.27.796.4 1.232.13.437.257.876.382 1.318.065.235.128.459.187.677a88.567 88.567 0 0 1 .553-1.935c.13-.43.257-.839.382-1.224l2.533-7.513Zm5.235.094c.102.175.153.37.153.586 0 .215-.051.414-.153.595-.102.181-.241.323-.417.425a1.146 1.146 0 0 1-.586.153c-.216 0-.414-.051-.595-.153a1.155 1.155 0 0 1-.434-.425 1.144 1.144 0 0 1-.161-.595c0-.215.054-.41.161-.586.108-.176.253-.318.434-.425.181-.108.38-.162.595-.162.215 0 .41.054.586.162.176.107.315.25.417.425Zm-1.904 3.39 1.734-.254v8.838h-1.734v-8.583Zm7.742 3.938 4.122 4.646h-2.244L18.3 47.822h-.028v4.164h-1.734V39.408l1.734-.255v7.36h.626l2.91-3.195h2.124l-4.037 4.022Zm11.635-2.926a3.08 3.08 0 0 0-1.25-.96c-.504-.216-1.079-.323-1.725-.323-.646 0-1.224.113-1.733.34-.51.226-.944.544-1.3.952a4.168 4.168 0 0 0-.817 1.47 6.134 6.134 0 0 0-.28 1.912c0 .93.167 1.72.501 2.371.335.652.83 1.145 1.488 1.479.657.334 1.461.501 2.413.501.453 0 .853-.025 1.198-.076.346-.051.672-.128.978-.23a6.38 6.38 0 0 0 .918-.39l.119-1.31c-.216.08-.434.16-.655.239-.22.079-.45.15-.688.212a5.197 5.197 0 0 1-.731.136c-.25.028-.499.042-.748.042-.51 0-.952-.048-1.326-.144a2.181 2.181 0 0 1-.943-.493c-.255-.232-.448-.547-.578-.943a4.269 4.269 0 0 1-.184-1.122h6.142c.079-.793.048-1.496-.094-2.108-.142-.612-.377-1.13-.705-1.555Zm-4.284.408c.363-.232.805-.349 1.326-.349s.98.128 1.309.383c.329.255.558.609.688 1.062.085.292.122.612.125.952h-4.47c.042-.38.11-.717.215-.994.176-.47.445-.822.808-1.054Zm14.839-.247c.215.488.323 1.117.323 1.887v5.524h-1.734V46.82c0-.351-.034-.657-.102-.918a1.577 1.577 0 0 0-.323-.646 1.358 1.358 0 0 0-.56-.382 2.327 2.327 0 0 0-.816-.127c-.227 0-.462.02-.706.059-.244.04-.487.1-.73.178-.244.08-.488.173-.732.28-.18.08-.35.17-.518.267v6.456h-1.734v-8.583l1.734-.255v1.215c.153-.122.312-.24.476-.348a5.52 5.52 0 0 1 1.368-.655c.482-.153.966-.23 1.453-.23.658 0 1.201.12 1.632.358.43.238.754.6.969 1.087Z"/></g><defs><clipPath id="a"><path fill="#fff" d="M0 22h59v31H0z"/></clipPath></defs></svg>
